X: 30270
T: Old Linen Mill, The
R: reel
M: 4/4
K: Gmajor
|:DEGA Bded|g2 ba geeg|degb aged|Bded BABd|
g3 b aged|BG G2 DGBG|AGED B,D D2|EFGB AGG2:|
|:dG G2 dGeG|dG G2 AGEG|AE E2 ABcA|BAGB ABcA|
BG G2 AGEG|DG G2 AGEB|AGED B,D D2|EFGB AG G2:|
|:DG G2 DGBd|eggf gage|dB B2 GBde|degb aggf|
g3 e dB B2|GBDB AGED|B,D D2 CE E2|DEGB AG G2:|

